X:82
T:Captn. Reed's or the 3d. Regt. of Guards March ThFife.82
B:Thompson, C. & Thompson, S., 'The Compleat Tutor for the Fife', London, c.1765-1780.
S:Digitised by National Library of Scotland at: https://archive.org/details/nlsmusic
Z:vmp Roger Hare, 2019.
M:C
%%score {1|2}
L:1/8
Q:1/4=100
K:D
V:1
%%MIDI program 73 % (standard instrument value - 1) - forces Flute
|: A | d2 d>d d2 f>e | d2 A2 d2 e2 | f2 f>f f2 a>g | f2 e2 f2 g2 |
a2 a>a a2 b>a | g2 g>g g2 a>g | f2 ed a2 gf | e2 e>e e2 z :|
|: A |A>BA>B c>dc>d | e>fe>f g2 f>e | d>ed>e f>gf>g | a>ba>b =c'2 ba |
bgfb afdf | g>fe>d c2 B>A | B>cd>g f2 !trill!e2 | d2 d>d d2 z :|
V:2
%%MIDI program 72 % (standard instrument value - 1) - forces Flute
|: z | z8 | z4 z2 z A |  d2 d>d d2 f>e | d2 A2 d2 e2 |
f2 f>f f2 g>f | e2 e>e e2 f>e | d4 e2 d2 | c2 c>c c2 z :|
|: z |z4 A>BA>B | c>dc>de2 d>c | d2 z2 d>ed>e | f>g f>g a2 gf |
g2 b2 f2 a2 | b2 B2 A2 d2 | d>ed>e d2 !trill!c2 | d2 d>d d2 z :|

